birds/Bulbul.svg

<svg version="1.1" id="Layer_1" xmlns="http://www.w3.org/2000/svg" xmlns:xlink="http://www.w3.org/1999/xlink" x="0px" y="0px"
	 width="100%" viewBox="0 0 1024 608" enable-background="new 0 0 1024 608" xml:space="preserve">
<path fill="#000000" opacity="1.000000" stroke="none" 
	d="
M665.318542,263.065613 
	C663.642212,272.353424 660.810303,280.419464 655.640503,288.235260 
	C647.845764,300.019470 642.536255,313.318359 640.349121,327.502777 
	C638.258301,341.062500 632.107422,352.732574 624.229919,363.638702 
	C614.216248,377.502167 602.276672,389.577972 589.032532,400.326508 
	C585.460388,403.225586 585.246338,405.283386 588.274719,408.707367 
	C593.464844,414.575531 597.967651,421.002045 601.626404,427.974152 
	C604.975464,434.356384 604.779419,441.238892 605.199402,449.448517 
	C600.329102,445.155090 600.395386,439.898621 597.689758,435.499390 
	C596.543518,440.550934 598.270264,445.691772 595.214233,450.793335 
	C590.114746,442.654785 594.570862,431.665741 586.269653,425.303009 
	C584.550293,425.556671 585.320007,428.099243 582.864075,428.473175 
	C579.970886,423.698792 580.748413,417.605988 578.625183,412.107269 
	C574.679260,413.064941 570.881653,413.986603 566.827881,414.970428 
	C567.337097,419.323120 569.295044,423.214325 570.959290,427.118530 
	C577.938721,443.490967 583.247314,460.195282 582.355103,478.302795 
	C582.281433,479.799347 582.371338,481.327911 582.093628,482.786072 
	C581.094055,488.033936 577.674194,489.246338 573.483582,485.841217 
	C569.447388,482.561523 567.066467,477.831451 563.319702,473.733429 
	C561.673706,476.098969 562.300537,478.721313 561.483032,480.936554 
	C560.855835,482.636200 560.777893,484.533295 560.202087,486.257935 
	C557.172913,495.330658 551.794922,496.902313 544.474609,490.700806 
	C541.846375,488.474335 539.649048,485.739288 537.231262,483.211395 
	C531.165771,493.299255 531.165771,493.299255 513.492432,482.312317 
	C512.106140,484.955200 510.948486,487.743286 509.287598,490.189728 
	C506.921326,493.675110 504.645325,493.305176 501.611023,490.359283 
	C494.039978,483.008698 493.600739,474.592865 496.602356,465.123749 
	C502.346588,447.002411 511.661957,430.687134 521.466919,414.589691 
	C522.674683,412.606842 523.856873,410.608429 525.215759,408.342316 
	C518.952698,404.054108 520.205872,396.780090 518.119690,390.703613 
	C512.998657,390.838501 508.411774,391.393707 504.936249,395.609802 
	C502.225647,398.897980 498.366760,400.699219 494.437408,402.149475 
	C488.128265,404.478088 485.105408,402.923279 483.149567,396.560181 
	C482.908905,395.777161 482.658234,394.997192 482.435059,394.288513 
	C465.672607,391.744415 465.672607,391.744415 467.778870,373.689697 
	C464.886993,373.271454 461.957642,372.950012 459.069061,372.410065 
	C451.735626,371.039276 450.023682,367.263153 453.619507,360.581390 
	C454.395447,359.139557 455.188721,357.707031 456.185425,355.883453 
	C453.511566,354.720551 451.031952,355.359741 448.648560,355.293671 
	C445.824158,355.215454 442.983429,355.482727 440.226593,354.551300 
	C435.591919,352.985413 434.226532,349.854279 436.828552,345.654297 
	C438.549744,342.876068 440.876160,340.472809 443.095734,337.696350 
	C440.142578,335.475006 435.881744,336.919342 433.554474,333.839355 
	C430.800568,330.194794 433.974121,327.299316 434.912567,324.083923 
	C433.185730,322.254059 430.919403,322.574951 428.853729,322.262146 
	C420.408356,320.983490 418.409790,316.275635 423.444641,309.458069 
	C424.520294,308.001587 425.687988,306.613068 427.102783,304.827911 
	C419.235748,301.576996 405.543365,303.201874 413.163055,287.477234 
	C407.718689,287.094757 402.784698,286.874359 397.880829,286.364349 
	C393.836609,285.943756 388.529724,286.467255 387.152649,281.812531 
	C385.738098,277.030914 391.062500,275.577759 394.026062,273.146881 
	C394.517365,272.743896 395.005829,272.337402 395.836212,271.650940 
	C392.084351,269.535950 388.120178,270.338837 384.520447,269.403992 
	C375.004791,266.932831 373.042084,263.393158 376.905609,254.110626 
	C374.845673,252.705856 372.442566,253.518478 370.252686,253.232330 
	C367.103943,252.820877 363.962494,252.382950 361.023041,251.144745 
	C355.767883,248.931091 354.411682,245.252441 357.278137,240.344116 
	C358.770538,237.788620 360.803070,235.548553 362.967285,232.665604 
	C359.667664,232.203888 356.639221,231.802704 353.618774,231.348389 
	C351.978180,231.101608 350.315247,230.892654 348.724091,230.446579 
	C340.249908,228.070938 338.852936,223.116943 345.047119,216.735641 
	C347.882416,213.814728 351.200287,211.362259 354.681396,208.368805 
	C349.316376,205.234283 344.372528,202.556320 339.660583,199.518616 
	C336.538696,197.506012 331.972504,195.435852 333.292084,191.044601 
	C334.528290,186.930801 339.421906,187.207733 343.172211,186.694702 
	C353.793915,185.241745 364.422546,187.262802 375.409271,186.842102 
	C374.889313,184.655975 373.069397,184.410095 371.778229,183.711288 
	C364.299469,179.663589 356.790405,175.660675 350.328918,170.038788 
	C348.614410,168.547089 346.229065,166.925308 347.177063,164.307831 
	C348.202911,161.475342 351.148743,161.811295 353.642090,161.680817 
	C355.894836,161.562927 357.875732,162.345917 359.860443,163.265152 
	C395.835999,179.927200 431.817108,196.577316 467.803650,213.215576 
	C468.978241,213.758652 470.060333,214.681458 471.972076,214.288712 
	C471.744659,211.329315 468.228607,209.407669 469.010437,206.281067 
	C469.937195,202.574936 473.698059,203.116653 476.505676,201.680405 
	C475.693207,199.551193 473.674011,198.533112 472.394043,196.930893 
	C471.153137,195.377579 469.499847,193.803635 470.044525,191.661301 
	C470.666962,189.213120 473.142822,189.578217 475.024872,189.153122 
	C475.974701,188.938583 476.927856,188.738693 478.282257,188.444778 
	C476.277100,184.209595 475.419708,180.251678 480.772400,177.322449 
	C476.060211,173.179688 471.721680,169.368729 467.386963,165.553391 
	C464.118073,162.676163 461.149750,159.499466 458.852020,155.807831 
	C455.442902,150.330551 457.377411,146.487061 463.834625,145.795319 
	C465.965790,145.566986 468.141998,145.759323 471.085022,145.759323 
	C469.442413,142.413498 466.926636,140.800400 464.963623,138.758820 
	C461.730896,135.396759 458.279144,132.220154 455.915924,128.131699 
	C454.997528,126.542801 454.035950,124.799553 455.307007,123.001251 
	C456.575470,121.206604 458.618042,121.483360 460.362885,121.825829 
	C465.979919,122.928299 471.081421,125.440498 476.059570,128.147690 
	C493.624908,137.700027 507.574036,151.551346 520.621582,166.336777 
	C542.992065,191.686966 561.485107,219.789948 577.969055,249.212158 
	C580.519043,253.763596 583.134949,255.128021 587.704590,253.497772 
	C589.716797,252.779922 592.038757,253.060852 594.112854,251.403854 
	C593.723572,248.318237 590.849365,245.702347 591.733582,242.179825 
	C592.718994,238.254562 596.676819,238.101883 599.252014,236.164719 
	C599.910339,233.319626 597.451294,231.239868 597.639221,228.466919 
	C597.851807,225.328339 600.666321,224.279617 602.025513,222.072357 
	C600.476624,219.059677 598.762512,216.203293 597.503418,213.158737 
	C595.838440,209.132675 596.149353,205.597595 601.022644,203.907852 
	C601.783813,203.643951 602.978943,203.308823 603.119507,202.779739 
	C604.708862,196.797562 608.442017,199.595993 611.223328,201.051498 
	C625.913452,208.739029 638.761292,219.145279 651.899170,229.111923 
	C654.665161,231.210281 657.403320,233.345352 660.239197,235.528900 
	C669.532593,226.399597 680.755188,225.567566 692.503357,225.828018 
	C693.155518,229.903717 690.444580,231.464859 688.374878,233.135483 
	C682.771667,237.658264 676.508179,241.220123 669.920349,244.033264 
	C665.945801,245.730469 664.649231,248.258667 665.430359,252.191498 
	C666.125366,255.690674 665.731262,259.155121 665.318542,263.065613 
z"/>
</svg>

<svg xmlns="http://www.w3.org/2000/svg" xml:space="preserve" viewBox="0 0 1024 608">
  <path d="M665.319 263.066c-1.677 9.287-4.509 17.353-9.678 25.17-7.795 11.783-13.105 25.082-15.292 39.267-2.09 13.56-8.242 25.23-16.12 36.136-10.013 13.863-21.952 25.939-35.196 36.688-3.573 2.899-3.787 4.956-.758 8.38 5.19 5.869 9.693 12.295 13.351 19.267 3.35 6.382 3.153 13.265 3.573 21.475-4.87-4.294-4.804-9.55-7.51-13.95-1.145 5.052.581 10.193-2.475 15.294-5.1-8.138-.643-19.127-8.944-25.49-1.72.254-.95 2.796-3.406 3.17-2.893-4.774-2.116-10.867-4.239-16.366l-11.797 2.863c.51 4.353 2.467 8.244 4.131 12.149 6.98 16.372 12.288 33.076 11.396 51.184-.074 1.496.016 3.025-.261 4.483-1 5.248-4.42 6.46-8.61 3.055-4.037-3.28-6.418-8.01-10.164-12.108-1.646 2.366-1.02 4.988-1.837 7.204-.627 1.7-.705 3.596-1.28 5.32-3.03 9.074-8.408 10.645-15.728 4.444-2.629-2.227-4.826-4.962-7.244-7.49-6.065 10.088-6.065 10.088-23.739-.899-1.386 2.643-2.544 5.431-4.204 7.878-2.367 3.485-4.643 3.115-7.677.17-7.571-7.351-8.01-15.767-5.009-25.236 5.745-18.122 15.06-34.437 24.865-50.534 1.208-1.983 2.39-3.982 3.749-6.248-6.263-4.288-5.01-11.562-7.096-17.638-5.121.135-9.708.69-13.184 4.906-2.71 3.288-6.57 5.09-10.499 6.54-6.309 2.328-9.332.773-11.287-5.59-.241-.783-.492-1.563-.715-2.271-16.762-2.545-16.762-2.545-14.656-20.6-2.892-.418-5.821-.739-8.71-1.279-7.333-1.37-9.045-5.147-5.45-11.829.776-1.441 1.57-2.874 2.566-4.698-2.673-1.162-5.153-.523-7.536-.59-2.825-.078-5.666.19-8.422-.742-4.635-1.566-6-4.697-3.398-8.897 1.72-2.778 4.047-5.181 6.267-7.958-2.953-2.221-7.214-.777-9.542-3.857-2.753-3.644.42-6.54 1.359-9.755-1.727-1.83-3.994-1.509-6.06-1.822-8.445-1.279-10.443-5.986-5.408-12.804 1.075-1.456 2.243-2.845 3.658-4.63-7.867-3.251-21.56-1.626-13.94-17.35-5.444-.383-10.378-.604-15.282-1.114-4.044-.42-9.351.103-10.728-4.551-1.415-4.782 3.91-6.235 6.873-8.666.491-.403.98-.81 1.81-1.496-3.752-2.115-7.716-1.312-11.316-2.247-9.515-2.471-11.478-6.01-7.614-15.293-2.06-1.405-4.463-.593-6.653-.879-3.15-.411-6.29-.85-9.23-2.087-5.255-2.214-6.611-5.893-3.745-10.8 1.493-2.556 3.525-4.796 5.69-7.68-3.3-.461-6.329-.862-9.35-1.317-1.64-.246-3.303-.455-4.894-.901-8.474-2.376-9.871-7.33-3.677-13.711 2.835-2.921 6.153-5.374 9.634-8.367-5.365-3.135-10.308-5.813-15.02-8.85-3.122-2.013-7.688-4.083-6.369-8.474 1.236-4.114 6.13-3.837 9.88-4.35 10.622-1.453 21.25.568 32.237.147-.52-2.186-2.34-2.432-3.63-3.13-7.48-4.048-14.989-8.051-21.45-13.673-1.715-1.492-4.1-3.114-3.152-5.731 1.026-2.833 3.972-2.497 6.465-2.627 2.253-.118 4.234.665 6.218 1.584q53.964 24.993 107.944 49.95c1.174.544 2.256 1.466 4.168 1.074-.227-2.96-3.743-4.881-2.962-8.008.927-3.706 4.688-3.164 7.496-4.6-.813-2.13-2.832-3.148-4.112-4.75-1.24-1.553-2.894-3.127-2.35-5.27.623-2.448 3.099-2.083 4.98-2.508.95-.214 1.904-.414 3.258-.708-2.005-4.235-2.862-8.193 2.49-11.123-4.712-4.142-9.05-7.953-13.385-11.769-3.269-2.877-6.237-6.054-8.535-9.745-3.41-5.477-1.475-9.32 4.983-10.013 2.13-.228 4.307-.036 7.25-.036-1.643-3.346-4.158-4.959-6.121-7-3.233-3.362-6.685-6.539-9.048-10.627-.918-1.59-1.88-3.332-.609-5.13 1.268-1.795 3.311-1.519 5.056-1.176 5.617 1.102 10.718 3.614 15.697 6.322 17.565 9.552 31.514 23.403 44.562 38.189 22.37 25.35 40.863 53.453 57.347 82.875 2.55 4.552 5.166 5.916 9.736 4.286 2.012-.718 4.334-.437 6.408-2.094-.39-3.086-3.264-5.702-2.38-9.224.986-3.925 4.944-4.078 7.519-6.015.658-2.845-1.8-4.925-1.613-7.698.213-3.139 3.027-4.187 4.387-6.395-1.55-3.012-3.263-5.869-4.523-8.913-1.665-4.026-1.354-7.561 3.52-9.251.76-.264 1.956-.6 2.097-1.128 1.589-5.982 5.322-3.184 8.103-1.729 14.69 7.688 27.538 18.094 40.676 28.06 2.766 2.1 5.504 4.234 8.34 6.418 9.294-9.13 20.516-9.961 32.264-9.701.653 4.076-2.058 5.637-4.128 7.307-5.603 4.523-11.867 8.085-18.455 10.898-3.974 1.697-5.27 4.226-4.49 8.158.695 3.5.301 6.964-.111 10.875"/>
</svg>
